packages/kaspersky-hexa-ui-icons/src/iconsSVGs/32/ShieldNotify.svg

<svg xmlns="http://www.w3.org/2000/svg" width="32" height="32" fill="none" viewBox="0 0 32 32"><path fill="#000" fill-rule="evenodd" d="M15.0649 2.24a2 2 0 0 1 1.8702 0l9.5324 5.0419a1 1 0 0 1 .5325.884v5.8203c0 1.9905-.1154 4.1295-.8521 6.1491-1.4669 4.0219-3.9177 6.4802-6.0129 7.9295-1.0446.7227-1.9997 1.194-2.7001 1.4866a11.2 11.2 0 0 1-.8434.3152 7 7 0 0 1-.2432.0747 4 4 0 0 1-.0706.0196l-.0217.0058-.0074.0019-.0028.0007-.0012.0003S16.2436 29.9698 16 29c-.2153.9765-.2164.9763-.2164.9763l-.0012-.0003-.0029-.0007-.0077-.0017-.0223-.0052a4 4 0 0 1-.0721-.0179 7 7 0 0 1-.2475-.069 10.6 10.6 0 0 1-.8557-.2975c-.71-.2793-1.677-.7362-2.7329-1.4533-2.12-1.4397-4.5839-3.9204-6.0368-8.0685C5.1115 18.0839 5 16.0008 5 14.0556V8.1659a1 1 0 0 1 .5324-.884zM16 29l-.2153.9765a1 1 0 0 0 .4589-.0067zm-.0139-1.0397a9.2 9.2 0 0 0 .678-.2544c.5937-.248 1.4217-.6554 2.3331-1.2859 1.817-1.2569 3.9705-3.4023 5.2718-6.9701.6111-1.6752.731-3.5213.731-5.4637v-5.218l-9-4.7603-9 4.7603v5.2874c0 1.8958.1153 3.6987.692 5.3455 1.291 3.6856 3.453 5.8391 5.2729 7.0751.9141.6207 1.7455 1.0122 2.3415 1.2466.289.1137.5215.1901.6797.2375M17 11c0-.5523-.4477-1-1-1s-1 .4477-1 1v6c0 .5522.4477 1 1 1s1-.4478 1-1zm0 10c0 .5522-.4477 1-1 1s-1-.4478-1-1 .4477-1 1-1 1 .4477 1 1"/></svg>

<svg width="32" height="32" viewBox="0 0 32 32" fill="none" xmlns="http://www.w3.org/2000/svg">
<path d="M16 10.0001C16.5523 10.0001 17 10.4478 17 11.0001V17.0001C17 17.5524 16.5523 18.0001 16 18.0001C15.4477 18.0001 15 17.5524 15 17.0001V11.0001C15 10.4478 15.4477 10.0001 16 10.0001Z" fill="black"/>
<path d="M16 22.0001C16.5523 22.0001 17 21.5524 17 21.0001C17 20.4478 16.5523 20.0001 16 20.0001C15.4477 20.0001 15 20.4478 15 21.0001C15 21.5524 15.4477 22.0001 16 22.0001Z" fill="black"/>
<path fill-rule="evenodd" clip-rule="evenodd" d="M15.0649 2.24012C15.6499 1.9307 16.3501 1.9307 16.9351 2.24012L26.4675 7.28201C26.7951 7.45526 27 7.79543 27 8.16598V13.9863C27 15.9768 26.8846 18.1158 26.1479 20.1354C24.681 24.1573 22.2302 26.6156 20.135 28.0649C19.0904 28.7876 18.1353 29.2589 17.4349 29.5515C17.0844 29.6979 16.7965 29.8 16.5915 29.8667C16.489 29.9 16.4071 29.9246 16.3483 29.9414C16.3189 29.9498 16.2953 29.9563 16.2777 29.961L16.256 29.9668L16.2486 29.9687L16.2458 29.9694L16.2446 29.9697C16.2446 29.9697 16.2436 29.97 16 29.0001C15.7847 29.9766 15.7836 29.9764 15.7836 29.9764L15.7824 29.9761L15.7795 29.9755L15.7718 29.9737L15.7495 29.9685C15.7315 29.9642 15.7074 29.9583 15.6774 29.9506C15.6174 29.9352 15.5341 29.9126 15.4299 29.8816C15.2216 29.8197 14.9295 29.7239 14.5742 29.5841C13.8642 29.3048 12.8972 28.8479 11.8413 28.1308C9.72131 26.6911 7.25742 24.2104 5.80452 20.0623C5.11158 18.084 5 16.001 5 14.0557V8.16598C5 7.79543 5.2049 7.45526 5.53245 7.28201L15.0649 2.24012ZM15.9861 27.9605C16.144 27.9087 16.3759 27.8264 16.6641 27.706C17.2578 27.458 18.0858 27.0506 18.9972 26.4201C20.8142 25.1632 22.9677 23.0178 24.269 19.4501C24.8801 17.7748 25 15.9288 25 13.9863V8.76833L16 4.00806L7 8.76833V14.0557C7 15.9515 7.11527 17.7544 7.69209 19.4012C8.98302 23.0869 11.145 25.2403 12.9649 26.4763C13.879 27.0971 14.7104 27.4885 15.3064 27.723C15.5954 27.8366 15.8279 27.913 15.9861 27.9605Z" fill="black"/>
<path d="M16 29.0001L16.2436 29.97C16.0932 30.0077 15.9361 30.01 15.7847 29.9766L16 29.0001Z" fill="black"/>
</svg>
